X:829
T:Reel 829
M:4/4
K:Gmaj
L:1/8
B2dB GBdg|ge2a faae|d2dB GBdg|ecAc BGG2|g2dB GBdf|g2eg faaf|g2dB GBdB|cedc BGG2|gfgc' bgaf|gedB  (3efg af|gbab gfdB|cedc BGGf|gfgb agfe|defg abc'a| (3bc'd' c'a gedB|cedc BGG2|
